X: 10522
Q: "With Spirit"
M: 6/8
L: 1/8
K: D
|: a |\
a>ba d'2a | f3 d2f | e>fe a2e | c3 ABc |\
d3 Bcd | e3 cde | fga agf | edc BA"_D.C."G !segno! |]



